X:89
T:Master of Ceremonies. JJo8.089, The
%%VWML:JohnsonVol8-2184-p45-0
F:http://www.vwml.org/record/JohnsonVol8/2184/p45
Z:Transcribed by Simon Furey and Lewis Jones
Z:vmp.Simon Wilson 2013 www.village-music-project.org.uk
Z:Dance added by John Chambers 2017
M:C|
L:1/8
%Q:1/2=80
K:G
|: g2fe  d2cB | cAdA B2AG | e2cA d2BG | cAGF  G2G,2 :|
|: A2FD  c3A  | BdBG cecA | BdBG gdcB | cAGF  G2G,2 :|
|: B2Bd ^cedc | defg afed | g2gb afed | ged^c {c}d4 :|
|: gdcB  ecBA | dBAG AFED | c2ce dBAG | cAGF  {F}G4 :|
W: Cast off two Cu. .| up again ..| Right
W:hands across with the 2d Cu :||. Left hands
W:back again :||: 1st and 2d Cu. foot it and
W:change Sides .| the same back again |
W:cross over and turn :||. Right hands
W:and Left ||
W:
T:Crown. JJo8.090, The
B:J.Johnson Choice Collection Vol 8 1758
Z:vmp.Simon Wilson 2013 www.village-music-project.org.uk
Z:Dance added by John Chambers 2017
M:6/8
L:1/8
%Q:3/8=120
K:D
|:\
dAf edc | dAG FED |\
dAf edc | B>a^ga3 :|\
|:\
agf gbe | fad cBA |
Bge caf | dbg efg |\
agf gbe | fad cBA |\
GEg FDf | E>dcd3 :|
W: Cast off one Cu. .| up again :|
W:Lead down one Cu. up again and
W:cast off :|. Right hands across
W:with the 3d Cu. :||: foot it Corners,
W:and not turn :|| Hands six
W:round :||. Right hands and Left
W:at top :||:
W:
T:Scotch Ramble. JJo8.091, The
B:J.Johnson Choice Collection Vol 8 1758
Z:vmp.Simon Wilson 2013 www.village-music-project.org.uk
Z:Dance added by John Chambers 2017
M:C|
L:1/8
%Q:1/2=90
K:A
|:\
A/A/A Ac ecAc | B/B/B GBd2cB |\
A/A/A Ac (ec)(dB) | c>eBc A/A/AA2 :|
|:\
ce- ef/g/a2(ec) | aecA B/B/B Bd |\
(cA)(eA) aecA | c>eBc A/A/AA2 :|
W: First Cu. cast off two Cu. .| Lead up to the
W:Top and cast off :| Hands 4 round with the
W:3d Cu. :||. Right hands and Left with the
W:2d Cu. :||: foot it at both Corners & turn :|
W:Lead out on both sides and turn :||:
W:
